brandFactory_export/3.Masa/Grupo_3Masa.svg

<?xml version="1.0" encoding="UTF-8"?>
<svg width="24px" height="24px" viewBox="0 0 24 24" version="1.1" xmlns="http://www.w3.org/2000/svg" xmlns:xlink="http://www.w3.org/1999/xlink">
    <title>3.Masa/Grupo_3Masa</title>
    <g id="Symbols" stroke="none" stroke-width="1" fill="none" fill-rule="evenodd">
        <g id="3.Masa/Grupo_3Masa" fill="#5CB615" fill-rule="nonzero">
            <path d="M11.8084034,5.31092437 C10.9714286,5.31092437 10.3193277,5.08907563 9.86890756,4.65546218 C9.40168067,4.20168067 9.16302521,3.53277311 9.16302521,2.65882353 C9.16302521,1.78487395 9.39831933,1.11260504 9.86890756,0.658823529 C10.3193277,0.221848739 10.9747899,0 11.8084034,0 C12.6453782,0 13.3008403,0.221848739 13.7546218,0.658823529 C14.2252101,1.11260504 14.4638655,1.78487395 14.4638655,2.65882353 C14.4638655,3.52941176 14.2252101,4.20168067 13.7546218,4.65546218 C13.3008403,5.09243697 12.6453782,5.31092437 11.8084034,5.31092437 Z M7.40504202,10.6084034 C7.24033613,10.6084034 7.10252101,10.4739496 7.10252101,10.3058824 L7.10252101,9.42184874 C7.10252101,8.57815126 7.36470588,7.85882353 7.86218487,7.33781513 C8.40336134,6.77310924 9.21008403,6.47394958 10.1915966,6.47394958 L13.4252101,6.47394958 C14.410084,6.47394958 15.2168067,6.77310924 15.7579832,7.33781513 C16.2554622,7.85882353 16.5210084,8.57815126 16.5210084,9.42184874 L16.5210084,10.3058824 C16.5210084,10.4705882 16.3865546,10.6084034 16.2184874,10.6084034 L7.40504202,10.6084034 Z M4.70588235,18.3260504 C3.86890756,18.3260504 3.21680672,18.1042017 2.76638655,17.6705882 C2.29579832,17.2168067 2.0605042,16.5478992 2.0605042,15.6739496 C2.0605042,14.8 2.29579832,14.1310924 2.76638655,13.6739496 C3.21680672,13.2369748 3.87226891,13.0117647 4.7092437,13.0117647 C5.54621849,13.0117647 6.20168067,13.2336134 6.65546218,13.6705882 C7.12605042,14.1243697 7.36470588,14.7966387 7.36470588,15.6705882 C7.36470588,16.5411765 7.12605042,17.2134454 6.65210084,17.6672269 C6.19831933,18.107563 5.54285714,18.3260504 4.70588235,18.3260504 L4.70588235,18.3260504 Z M6.32268908,19.4890756 C7.30420168,19.4890756 8.11092437,19.7882353 8.65546218,20.3529412 C9.15630252,20.8739496 9.41848739,21.5932773 9.41848739,22.4369748 L9.41848739,23.3210084 C9.41848739,23.4890756 9.28403361,23.6235294 9.11596639,23.6235294 L0.302521008,23.6235294 C0.134453782,23.6235294 0,23.4890756 0,23.3210084 L0,22.4369748 C0,21.5932773 0.262184874,20.8705882 0.759663866,20.3529412 C1.30084034,19.7882353 2.10756303,19.4857143 3.08907563,19.4857143 L6.32268908,19.4857143 L6.32268908,19.4890756 Z M16.9680672,17.6638655 C16.497479,17.210084 16.2588235,16.5411765 16.2588235,15.6672269 C16.2588235,14.7932773 16.497479,14.1210084 16.9647059,13.6672269 C17.4151261,13.2302521 18.0705882,13.0084034 18.907563,13.0084034 C19.7445378,13.0084034 20.4,13.2302521 20.8537815,13.6672269 C21.3243697,14.1210084 21.5630252,14.7966387 21.5630252,15.6672269 C21.5630252,16.5378151 21.3210084,17.210084 20.8504202,17.6638655 C20.3966387,18.1008403 19.7445378,18.3193277 18.9042017,18.3193277 C18.0638655,18.3193277 17.4184874,18.097479 16.9680672,17.6638655 L16.9680672,17.6638655 Z M22.8605042,20.3462185 C23.3613445,20.8672269 23.6235294,21.5865546 23.6235294,22.4302521 L23.6235294,23.3142857 C23.6235294,23.4789916 23.4890756,23.6168067 23.3210084,23.6168067 L14.5042017,23.6168067 C14.3394958,23.6168067 14.2016807,23.4823529 14.2016807,23.3142857 L14.2016807,22.4302521 C14.2016807,21.5865546 14.4638655,20.8638655 14.9613445,20.3462185 C15.502521,19.7815126 16.3092437,19.4823529 17.2907563,19.4823529 L20.5210084,19.4823529 C21.5092437,19.4823529 22.3159664,19.7815126 22.8605042,20.3462185 L22.8605042,20.3462185 Z M14.9983193,17.2067227 C14.7831933,17.5596639 14.3226891,17.6739496 13.9697479,17.4554622 L11.7882353,16.1210084 L9.60672269,17.4554622 C9.48571429,17.5294118 9.3512605,17.5663866 9.21680672,17.5663866 C8.96470588,17.5663866 8.71596639,17.4386555 8.57478992,17.2067227 C8.35966387,16.8537815 8.47058824,16.3932773 8.82352941,16.1747899 L11.0352941,14.8201681 L11.0352941,12.2487395 C11.0352941,11.8352941 11.3714286,11.4991597 11.7848739,11.4991597 C12.1983193,11.4991597 12.5344538,11.8352941 12.5344538,12.2487395 L12.5344538,14.8201681 L14.7462185,16.1747899 C15.102521,16.389916 15.2168067,16.8504202 14.9983193,17.2067227 L14.9983193,17.2067227 Z" id="Grupo_3Masa"></path>
        </g>
    </g>
</svg>

<svg width="24" height="24" viewBox="0 0 24 24" xmlns="http://www.w3.org/2000/svg"><path d="M11.808 5.31c-.837 0-1.489-.22-1.94-.655-.466-.453-.705-1.122-.705-1.996 0-.874.235-1.546.706-2C10.319.222 10.975 0 11.809 0c.836 0 1.492.222 1.946.659.47.454.709 1.126.709 2 0 .87-.239 1.543-.71 1.996-.453.437-1.109.656-1.946.656zm-4.403 5.298a.303.303 0 01-.302-.302v-.884c0-.844.262-1.563.76-2.084.54-.565 1.347-.864 2.329-.864h3.233c.985 0 1.792.3 2.333.864.497.52.763 1.24.763 2.084v.884a.303.303 0 01-.303.302H7.405zm-2.7 7.718c-.836 0-1.488-.222-1.939-.655-.47-.454-.705-1.123-.705-1.997 0-.874.235-1.543.705-2 .45-.437 1.106-.662 1.943-.662s1.493.222 1.946.659c.471.453.71 1.126.71 2 0 .87-.239 1.542-.713 1.996-.454.44-1.11.66-1.946.66zm1.618 1.163c.981 0 1.788.3 2.332.864.501.52.763 1.24.763 2.084v.884a.301.301 0 01-.302.303H.303A.301.301 0 010 23.32v-.884c0-.844.262-1.566.76-2.084.54-.565 1.348-.867 2.33-.867h3.233v.003zm10.645-1.825c-.47-.454-.71-1.123-.71-1.997 0-.874.24-1.546.707-2 .45-.437 1.106-.659 1.943-.659s1.492.222 1.946.66c.47.453.709 1.129.709 2 0 .87-.242 1.542-.713 1.996-.453.437-1.105.655-1.946.655-.84 0-1.486-.222-1.936-.655zm5.893 2.682c.5.521.763 1.24.763 2.084v.884a.303.303 0 01-.303.303h-8.817a.303.303 0 01-.302-.303v-.884c0-.843.262-1.566.76-2.084.54-.564 1.347-.864 2.329-.864h3.23c.988 0 1.795.3 2.34.864zm-7.863-3.14a.745.745 0 01-1.028.25l-2.182-1.335-2.181 1.334a.746.746 0 01-1.032-.248.753.753 0 01.249-1.032l2.211-1.355V12.25a.75.75 0 011.5 0v2.571l2.211 1.355c.357.215.47.675.252 1.032z" fill="#5CB615" fill-rule="nonzero"/></svg>
